X:119
T: HOERT WENN IHR KEINEN GARTEN HABT
N: F0238
O: Europa, Mitteleuropa, Deutschland
R: Jugend - Lied, Natur
M: 3/4
L: 1/16
K: F
C2 | F6E2F2G2 | A3GF4z2
C2 | G6^F2G2A2 | B4G4z2
C2 | A6G2A2c2 | =B3AG4z2
B2 | d6G2A2=B2 | d4c4z2
e2 | f6G2A2=B2 | d4c4z2
c2 | B6G2E2C2 | F3Ac4z2
c2 | B6G2E2C2 | F3Ac4z2
c2 | f6d2c2A2 | B3GF4z2

@@@ Tune index: 5550
